folder-arrow-left-outline.svg

<svg fill="currentColor" viewBox="0 0 24 24"><path d="M22 8v5.81c-.61-.35-1.28-.59-2-.72V8H4v10h9.09c-.05.33-.09.66-.09 1s.04.67.09 1H4a2 2 0 0 1-2-2V6c0-1.11.89-2 2-2h6l2 2h8a2 2 0 0 1 2 2m-4 8-3 3 3 3v-2h4v-2h-4z"/></svg>

<svg  viewBox="0 0 24 24" fill="currentColor"><path  d="M22 8V13.81C21.39 13.46 20.72 13.22 20 13.09V8H4V18H13.09C13.04 18.33 13 18.66 13 19C13 19.34 13.04 19.67 13.09 20H4C2.9 20 2 19.11 2 18V6C2 4.89 2.89 4 4 4H10L12 6H20C21.1 6 22 6.89 22 8M18 16L15 19L18 22V20H22V18H18V16Z"/></svg>
